X:528
T:Charles O'Reilly
M:3/4
L:1/8
B:O'Neill's 528
N:"Mournful" "collected by J. O'Neill"
Z:Transcribed by Dave Wooldridge
K:G
EF \
 | (.G.G .G2) (BG) | (.E.E .E2) (FG) | (.A.A .A2) (FA) | (.D.D .D2) (Bc) |
(.d.d .d2) (gd) | ec B2 GA | (.B.B .c2) (AF) | (.G.G G2) ||
uBvG \
| (.E.E .E2) (BG) | (.D.D .D2) (Bc) | (.d.d .d2) (gB) | (cB) A2  (BG) |
(.E.E .E2) (BG) | (.D.D .D2) (Bc) | (  .d.d) c2 (AF) | (.G.G G2) ||


